X:245
T: DOA SAU EN JONGE MOAD FREUG OPSTOAN
N: E0122
O: Europa, Mitteleuropa, Deutschland, Niederrhein, Niederkruechten
R: erzaehlendes Volks - Lied, Schalk -, Schelmen - Lied, Liebe
M: 4/4
L: 1/8
K: D
=C2 | =F2F2AGFG | A2AG=F2
A_B | =c2A2=FEFG | A2AG=F2
F2 | =F4G2 | A2=F2G2 | =F2E2F2 | D4
=F2 | =F4G2 | A2=F2G2 | =F2E2F2 | D4

@@@ Tune index: 3895
